X:63
T:Didi Cronin's
R:polka
M:2/4
L:1/8
K:Dmaj
DF/A/ df | ed Bd | AB/A/ FA | BA EF |
DF/A/ df | ed Bd | AF EF |[1 D2 D :|[2 D2 D2 ||
|: fA df | e/f/e/d/ Bd | fA df | e2 d2 |
fA df | e/f/e/d/ Bd | AF EF |[1 D2 D2 :|[2 D2- D |]

